X: 6
T: The Humours Of Lisheen
R: jig
M: 6/8
L: 1/8
K: Gmaj
d|:efg edB|cBA BGD|G3 BdB|BAG ABd|
efg edB|cBA BGD|G3 BdB|1 AGF GBd:|2 AGF G2G||
|:GBd g3|agf g2e|fed edB|cBA BGD|
GBd g3|agf g2e|fed edB|1 cAF G2D:|2 cAF G2d||


Tune 1600	Setting 15013

